X: 388
%
U:~=!turn!
T: Miss Annie MacKinnon
C:K.N. Macdonald
C:Pipe tune. Skye Style.
O:Scotland
B:Keith Norman MacDonald : "The Skye collection of the best reels & strathspeys extant" : 1887
Z:Ralph Palmer
R:Reel
M:C
L:1/8
K:A Mixolydian
e | AAeA cAeA | (f<g) dB GBdG | AAeA cAeA | {/f}g2 dB A<A A:|
AAce aeef | g2 dB GBdB | AAeA aeef | g2 (fd) e2 Ae |
AAeA aeef | g2 dB GBdB | AAcA eAcA BGdB A2 A2 |]


